X: 21
I: linebreak $
T: Sofferance
T: for two
C: Richard Schweitzer, CC BY-NC-SA 3.0
P: AAA BB CC DD EE
N: Permission granted to copy within the SCA.
K: F major
M: 6/8
L: 1/8
P: A (3x)
"^Drone: F/C"F2F G2A | c2c c2A | G2G GAG | "^             (3)"F6 :: 
P: B
B2B G2G | A2A F2F :: 
P: C
F3 G3 | A2B A3 :: 
P: D
F2F G2A | c2c BAG :: 
P: E
F2A GFE | F6 :| 


